src/assets/icons/shapes,simple,outline-heart.svg

<svg width="48" height="48" viewBox="0 0 48 48" fill="none" xmlns="http://www.w3.org/2000/svg">
<rect opacity="0.2" x="5" y="5" width="38" height="38" rx="4" fill="black"/>
<path d="M11 19.3303C11 15.8206 13.836 13 17.4118 13C19.3582 13 20.7225 13.7004 21.7802 14.5606L21.8153 14.5892C22.1963 14.8991 22.5354 15.1749 22.8248 15.3684C23.1101 15.5593 23.5116 15.788 24 15.788C24.4884 15.788 24.8899 15.5593 25.1752 15.3684C25.4646 15.1749 25.8037 14.8991 26.1847 14.5892L26.2198 14.5606C27.2775 13.7004 28.6418 13 30.5882 13C34.164 13 37 15.8206 37 19.3303C37 22.365 35.325 25.0447 32.8606 27.5328C30.9428 29.4691 28.6594 31.1835 26.5053 32.8009C25.8815 33.2692 25.2686 33.7294 24.6785 34.1845C24.3441 34.4425 24.1581 34.5841 24.0161 34.6703C24.0105 34.6738 24.0051 34.677 24 34.68C23.9949 34.677 23.9895 34.6738 23.9839 34.6703C23.8419 34.5841 23.6559 34.4425 23.3215 34.1845C22.7314 33.7294 22.1185 33.2692 21.4947 32.8009C19.3406 31.1835 17.0572 29.4691 15.1394 27.5328C12.675 25.0447 11 22.365 11 19.3303Z" stroke="black" stroke-width="2"/>
</svg>

<svg xmlns="http://www.w3.org/2000/svg" width="48" height="48" fill="none" viewBox="0 0 48 48">
  <rect width="38" height="38" x="5" y="5" fill="#000" opacity=".2" rx="4"/>
  <path stroke="#000" stroke-width="2" d="M11 19.33c0-3.51 2.836-6.33 6.412-6.33 1.946 0 3.31.7 4.368 1.56l.035.03c.381.31.72.585 1.01.778.285.191.687.42 1.175.42s.89-.229 1.175-.42c.29-.193.629-.469 1.01-.779l.035-.028C27.278 13.7 28.642 13 30.588 13 34.164 13 37 15.82 37 19.33c0 3.035-1.675 5.715-4.14 8.203-1.917 1.936-4.2 3.65-6.355 5.268-.623.468-1.236.928-1.826 1.383-.335.259-.52.4-.663.486a.691.691 0 01-.016.01.691.691 0 01-.016-.01c-.142-.086-.328-.227-.663-.486-.59-.455-1.203-.915-1.826-1.383-2.154-1.618-4.438-3.332-6.356-5.268C12.675 25.045 11 22.365 11 19.33z"/>
</svg>
